packages/core/assets/Icons/arrow_drop_up.svg

<svg viewBox="0 0 20 20" fill="none" xmlns="http://www.w3.org/2000/svg">
<path d="M10.4375 7.93746L13.4584 10.9583C13.5 11 13.5313 11.0451 13.5521 11.0937C13.573 11.1423 13.5834 11.1944 13.5834 11.25C13.5834 11.3611 13.5452 11.4583 13.4688 11.5416C13.3924 11.625 13.2917 11.6666 13.1667 11.6666L6.83337 11.6666C6.70837 11.6666 6.60768 11.625 6.53129 11.5416C6.4549 11.4583 6.41671 11.3611 6.41671 11.25C6.41671 11.2222 6.45837 11.125 6.54171 10.9583L9.56254 7.93746C9.63199 7.86801 9.70143 7.8194 9.77087 7.79163C9.84032 7.76385 9.91671 7.74996 10 7.74996C10.0834 7.74996 10.1598 7.76385 10.2292 7.79163C10.2987 7.8194 10.3681 7.86801 10.4375 7.93746Z" fill="currentColor"/>
</svg>

<svg xmlns="http://www.w3.org/2000/svg" width="20" height="20" fill="none" viewBox="0 0 20 20">
  <path fill="#201F1F" d="m10.438 7.937 3.02 3.021a.391.391 0 0 1 .125.292.418.418 0 0 1-.114.292.39.39 0 0 1-.302.125H6.833a.39.39 0 0 1-.302-.125.418.418 0 0 1-.114-.292c0-.028.041-.125.125-.292l3.02-3.02a.635.635 0 0 1 .209-.146A.612.612 0 0 1 10 7.75c.083 0 .16.014.23.042a.622.622 0 0 1 .207.145Z"/>
</svg>
